X:15558
T:Sl\"angpolska fr Sm\aa{}land
R:Sl\"angpolska
O:Sweden
M:3/4
A:Sm\aa{}land
K:D
dc df A2| GF EG FD| dc df A2| (3GFE F2 D2 :|
fd df df| ge eg eg| fd df df| ge eg eg|\
fa gf ed | (3cBc d4:|
